!! 00000] TT[WS
!!!OTL: Riben qiangdao zhen kehen
!!!ARE: Asia, China, Shanxi Xingxian
!! Ethnic Group: Han
!! WII, 210
!!!SCT: J0714
!!!YEM: Copyright 1995, estate of Helmut Schaffrath.
**kern
*ICvox
*Ivox
*M2/4
*k[b-]
*F:
{8b-
8dd
4cc
=1
8b-
8dd
4cc
=2
8dd
8cc
8b-
8a
=3
4cc
8g
8cc}
=4
{8r
8ff
8dd
8ff
=5
8.cc
16ff
8a
8g
=6
8f
4g
8d
=7
2c}
=8
{8.cc
16cc
8g
8a
=9
8f
8d
4c
=10
8cc
8cc
8g
8a
=11
8d
8f
4c}
=12
{8.d
16f
8.d
16f
=13
8a
4.g
=14
8.g
16a
8cc
8cc
=15
8dd
8ff
8dd
8cc
=16
4cc
8cc
8a
=17
8g
8f
4c}
==
!!!AGN: Xiaodiao. Sushuo
!!!ONB: ESAC (Essen Associative Code) Database: CHINA
!!!AMT: simple duple
!!!AIN: vox
!!!EED: Helmut Schaffrath
!!!EEV: 1.0
*-
